assets/Ticket/Flat/ticket_flat.svg

<svg width="32" height="32" viewBox="0 0 32 32" fill="none" xmlns="http://www.w3.org/2000/svg">
<path d="M27.81 9H22.7C22.45 9 22.24 9.17407 22.17 9.4198C21.98 10.0853 21.37 10.5768 20.66 10.5768C19.95 10.5768 19.34 10.0956 19.15 9.4198C19.08 9.17407 18.87 9 18.62 9H4.19C2.98 9 2 10.0034 2 11.2423V21.7577C2 22.9966 2.98 24 4.19 24H18.62C18.87 24 19.08 23.8259 19.15 23.5802C19.34 22.9147 19.95 22.4232 20.66 22.4232C21.37 22.4232 21.98 22.9044 22.17 23.5802C22.24 23.8259 22.45 24 22.7 24H27.81C29.02 24 30 22.9966 30 21.7577V11.2423C30 10.0034 29.02 9 27.81 9ZM20.66 20.6416C19.79 20.6416 19.0002 19.8988 19.0002 19.008C19.0002 18.1172 19.79 17.4061 20.66 17.4061C21.53 17.4061 22.2558 18.1172 22.2558 19.008C22.2558 19.8988 21.53 20.6416 20.66 20.6416ZM20.66 15.6041C19.79 15.6041 19.0117 14.8771 19.0117 13.9863C19.0117 13.0956 19.79 12.3686 20.66 12.3686C21.53 12.3686 22.2812 13.0956 22.2812 13.9863C22.2813 14.8771 21.53 15.6041 20.66 15.6041Z" fill="#F9C23C"/>
<path d="M10.1161 14H5.88388C5.39515 14 5 13.5686 5 13.035C5 12.5014 5.39515 12.0699 5.88388 12.0699H10.1161C10.6049 12.0699 11 12.5014 11 13.035C11 13.5799 10.6049 14 10.1161 14Z" fill="#D3883E"/>
<path d="M5.58387 19H15.4263C15.7391 19 16.0101 18.7768 15.9997 18.5C15.9997 18.2232 15.7391 18 15.4158 18H5.58387C5.26066 18 5 18.2232 5 18.5C5 18.7768 5.26066 19 5.58387 19Z" fill="#D3883E"/>
<path d="M5.58387 21H15.4263C15.7391 21 16.0101 20.7679 15.9997 20.5C15.9997 20.2232 15.7391 20 15.4158 20H5.58387C5.26066 20 5 20.2232 5 20.5C5 20.7768 5.26066 21 5.58387 21Z" fill="#D3883E"/>
<path d="M24.7386 17H27.2614C27.6705 17 28 17.3295 28 17.7386V20.2614C28 20.6705 27.6705 21 27.2614 21H24.7386C24.3295 21 24 20.6705 24 20.2614V17.7386C24 17.3295 24.3295 17 24.7386 17Z" fill="#D3883E"/>
</svg>

<svg xmlns="http://www.w3.org/2000/svg" width="32" height="32" fill="none"><path fill="#F9C23C" d="M27.81 9H22.7c-.25 0-.46.174-.53.42-.19.665-.8 1.157-1.51 1.157s-1.32-.481-1.51-1.157a.558.558 0 0 0-.53-.42H4.19C2.98 9 2 10.003 2 11.242v10.516C2 22.997 2.98 24 4.19 24h14.43c.25 0 .46-.174.53-.42.19-.665.8-1.157 1.51-1.157s1.32.481 1.51 1.157c.07.246.28.42.53.42h5.11c1.21 0 2.19-1.003 2.19-2.242V11.242C30 10.003 29.02 9 27.81 9Zm-7.15 11.642c-.87 0-1.66-.743-1.66-1.634 0-.89.79-1.602 1.66-1.602.87 0 1.596.711 1.596 1.602 0 .89-.726 1.634-1.596 1.634Zm0-5.038c-.87 0-1.648-.727-1.648-1.618 0-.89.778-1.617 1.648-1.617.87 0 1.621.727 1.621 1.617 0 .891-.751 1.618-1.621 1.618Z"/><path fill="#D3883E" d="M10.116 14H5.884C5.395 14 5 13.569 5 13.035s.395-.965.884-.965h4.232c.489 0 .884.431.884.965 0 .545-.395.965-.884.965ZM5.584 19h9.842c.313 0 .584-.223.574-.5 0-.277-.26-.5-.584-.5H5.584c-.323 0-.584.223-.584.5s.26.5.584.5ZM5.584 21h9.842c.313 0 .584-.232.574-.5 0-.277-.26-.5-.584-.5H5.584c-.323 0-.584.223-.584.5s.26.5.584.5ZM24.739 17h2.522c.41 0 .739.33.739.739v2.522c0 .41-.33.739-.739.739H24.74a.737.737 0 0 1-.739-.739V17.74c0-.41.33-.739.739-.739Z"/></svg>
